docs/images/icons/yacht-facing.svg

<svg width="35" height="35" fill="none" xmlns="http://www.w3.org/2000/svg"><defs><clipPath id="a"><path fill="#fff" fill-opacity="0" d="M0 0h35v35H0z"/></clipPath></defs><path d="M0 0h35v35H0z"/><g clip-path="url(#a)"><path d="M34.93 26.65a.552.552 0 0 0-.49-.29H20.81v-4.55h11.75c.21 0 .39-.11.49-.29a.58.58 0 0 0-.03-.57L20.81 3.15v-.72a.555.555 0 0 0-1.11 0v3.72l-7.68 13.9c-.1.17-.1.38 0 .55.1.17.28.27.48.27h5.92c.31 0 .55-.25.55-.55 0-.3-.24-.55-.55-.55h-4.99L19.7 8.43v17.93h-1.12v-.27c0-1.93-1.57-3.5-3.5-3.5h-4.57V9.83c0-.3-.24-.55-.55-.55-.3 0-.55.25-.55.55v.16L1.97 20.95a.58.58 0 0 0-.03.57c.1.18.29.29.49.29h5.65c.3 0 .55-.24.55-.55 0-.3-.25-.55-.55-.55H3.47l5.94-8.75v10.63H8.08c-.31 0-.55.25-.55.55v1.34H4.31c-.3 0-.55.24-.55.55v1.33H.55c-.18 0-.35.08-.45.23-.1.14-.13.33-.08.5l1.89 5.64c.07.23.28.38.52.38h28.25c.18 0 .35-.09.46-.24l3.76-5.65c.12-.17.13-.39.03-.57Zm-3.42-5.94h-10.7V5.1l10.7 15.61Zm-1.13 11.3H2.83l-1.52-4.55h14.5c.31 0 .55-.24.55-.55 0-.3-.24-.55-.55-.55H4.86v-.78h3.22c.3 0 .55-.25.55-.55V23.7h6.45c.7 0 1.33.3 1.77.78h-6.42c-.3 0-.55.24-.55.55 0 .3.25.55.55.55h6.99c.03.16.05.33.05.51v.82c0 .31.25.55.55.55.04 0 .07 0 .1-.01.02.01.06.01.09.01h15.2l-3.03 4.55Z" fill="#000"/></g></svg>

<svg width="35.000000" height="35.000000" viewBox="0 0 35 35" fill="none" xmlns="http://www.w3.org/2000/svg" xmlns:xlink="http://www.w3.org/1999/xlink">
	<desc>
			Created with Pixso.
	</desc>
	<defs>
		<clipPath id="clip339_301">
			<rect id="yacht-facing-right-svgrepo-com 1" width="35.000000" height="35.000000" fill="white" fill-opacity="0"/>
		</clipPath>
	</defs>
	<rect id="yacht-facing-right-svgrepo-com 1" width="35.000000" height="35.000000" fill="#FFFFFF" fill-opacity="0"/>
	<g clip-path="url(#clip339_301)">
		<path id="Vector" d="M34.93 26.65C34.83 26.47 34.65 26.36 34.44 26.36L20.81 26.36L20.81 21.81L32.56 21.81C32.77 21.81 32.95 21.7 33.05 21.52C33.14 21.34 33.13 21.12 33.02 20.95L20.81 3.15L20.81 2.43C20.81 2.13 20.56 1.88 20.25 1.88C19.95 1.88 19.7 2.13 19.7 2.43L19.7 6.15L12.02 20.05C11.92 20.22 11.92 20.43 12.02 20.6C12.12 20.77 12.3 20.87 12.5 20.87L18.42 20.87C18.73 20.87 18.97 20.62 18.97 20.32C18.97 20.02 18.73 19.77 18.42 19.77L13.43 19.77L19.7 8.43L19.7 26.36L18.58 26.36L18.58 26.09C18.58 24.16 17.01 22.59 15.08 22.59L10.51 22.59L10.51 10.16C10.51 10.16 10.51 10.16 10.51 10.16L10.51 9.83C10.51 9.53 10.27 9.28 9.96 9.28C9.66 9.28 9.41 9.53 9.41 9.83L9.41 9.99L1.97 20.95C1.86 21.12 1.85 21.34 1.94 21.52C2.04 21.7 2.23 21.81 2.43 21.81L8.08 21.81C8.38 21.81 8.63 21.57 8.63 21.26C8.63 20.96 8.38 20.71 8.08 20.71L3.47 20.71L9.41 11.96L9.41 22.59L8.08 22.59C7.77 22.59 7.53 22.84 7.53 23.14L7.53 24.48L4.31 24.48C4.01 24.48 3.76 24.72 3.76 25.03L3.76 26.36L0.55 26.36C0.37 26.36 0.2 26.44 0.1 26.59C0 26.73 -0.03 26.92 0.02 27.09L1.91 32.73C1.98 32.96 2.19 33.11 2.43 33.11L30.68 33.11C30.86 33.11 31.03 33.02 31.14 32.87L34.9 27.22C35.02 27.05 35.03 26.83 34.93 26.65ZM31.51 20.71L20.81 20.71L20.81 6.3C20.81 6.3 20.81 6.3 20.81 6.3L20.81 5.1L31.51 20.71ZM30.38 32.01L2.83 32.01L1.31 27.46L15.81 27.46C16.12 27.46 16.36 27.22 16.36 26.91C16.36 26.61 16.12 26.36 15.81 26.36L4.86 26.36L4.86 25.58L8.08 25.58C8.38 25.58 8.63 25.33 8.63 25.03L8.63 23.7L15.08 23.7C15.78 23.7 16.41 24 16.85 24.48L10.43 24.48C10.13 24.48 9.88 24.72 9.88 25.03C9.88 25.33 10.13 25.58 10.43 25.58L17.42 25.58C17.45 25.74 17.47 25.91 17.47 26.09L17.47 26.91C17.47 27.22 17.72 27.46 18.02 27.46C18.06 27.46 18.09 27.46 18.12 27.45C18.14 27.46 18.18 27.46 18.21 27.46L33.41 27.46L30.38 32.01Z" fill="#000000" fill-opacity="1.000000" fill-rule="nonzero"/>
	</g>
</svg>
